X:1
T: Minnie's New Hat
C:Bruce Shawyer
R:Jig
I:speed 180
K:D
M:6/8
L:1/16
|:A2|d2A2F2 D2F2A2|B2A2G2 A2F2D2|B2G2B2 A2G2F2|E2F2G2 A2B2c2|
d2A2F2 D2F2A2|B2A2G2 A2F2D2|B2G2B2 A2G2F2|E2D2C2 D4:|
|:A2|d4f2 e2d2c2|d4d2 c2B2A2|B2G2B2 A2B2c2|d2e2d2 c2B2A2|
d4f2 e2d2c2|d2e2d2 c2B2A2|B2G2B2 A2G2F2|E2D2C2 D4:|
